!!!COM:	Bach, Johann Sebastian
!!!CDT:	1685/02/21/-1750/07/28/
!!!OTL@@DE:	Was frag ich nach der Welt
!!!SCT:	BWV 64/4 (94/8)
!!!PC#:	291
!!!AGN:	chorale
**kern	**kern	**kern	**kern
*ICvox	*ICvox	*ICvox	*ICvox
*Ibass	*Itenor	*Ialto	*Isoprn
*I"Bass	*I"Tenor	*I"Alto	*I"Soprano
*clefF4	*clefGv2	*clefG2	*clefG2
*k[f#c#]	*k[f#c#]	*k[f#c#]	*k[f#c#]
*D:	*D:	*D:	*D:
*M4/4	*M4/4	*M4/4	*M4/4
*met(c)	*met(c)	*met(c)	*met(c)
*MM100	*MM100	*MM100	*MM100
4C#	4A	4e	4a
=1	=1	=1	=1
4D	4A	4d	4f#
4E	4G	4c#	8eL
.	.	.	8dJ
4F#	4A	4d	4a
4D	4d	4f#	4a
=2	=2	=2	=2
2.G;	2.d;	2.g;	2.b;
4G#	4d	4e	4b
=3	=3	=3	=3
4A	8c#L	8eL	4e
.	8BJ	8dJ	.
8AL	4A	4c#	4e
8GnXJ	.	.	.
8F#L	4A	4d	4a
8EJ	.	.	.
8DL	4A	4e	4g
8C#J	.	.	.
=4	=4	=4	=4
4D	2A	8e	4f#
.	.	4d	.
4AA	.	.	4e
.	.	8c#	.
4D;	4F#;	4A;	4d;
4F#	4A	4d	4a
=5	=5	=5	=5
4G	4G	4d	4b
4E	4B	4g	4b
4A	8c#L	8gL	4a
.	8dJ	8f#J	.
4AA	8dL	4e	4g
.	8c#J	.	.
=6	=6	=6	=6
2.D;	2.A;	2.d;	2.f#;
4C#	4A	4e	4e
=7	=7	=7	=7
4D	4A	4d	4f#
8C#L	4B	4d	4g#
8BBJ	.	.	.
4F#	4A	4c#	4a
8EL	4A	4f#	8bL
8DJ	.	.	16cc#L
.	.	.	16ddJJ
=8	=8	=8	=8
2E	4A	2e	4cc#
.	4G#	.	8bL
.	.	.	8aJ
4AA;	4c#;	4e;	4a;
4A	4c#	4e	4a
=9	=9	=9	=9
4d	4d	8f#L	4a
.	.	8eJ	.
8DL	4d	8f#L	4a
8EJ	.	8gnXJ	.
4F#	4A	4a	4dd
4D	4d	4f#	4cc
=10	=10	=10	=10
2.G;	2.d;	2.g;	2.b;
4D#	4f#	4a	4b
=11	=11	=11	=11
8EL	4e	4a	4b
8F#J	.	.	.
8EL	4B	4g#	4b
8DnXJ	.	.	.
8C#L	8BL	8g#L	4ee
8DJ	8AJ	8f#J	.
4E	8AL	8f#L	4dd
.	8G#J	8eJ	.
=12	=12	=12	=12
2.AA;	2.A;	2.e;	2.cc#;
4F#	4A	4d	4a
=13	=13	=13	=13
4G	4G	4d	4b
4F#	4A	4d	4a
4E	8eL	8gL	4b
.	8dJ	8f#J	.
4AA#	4e	4g	4cc#
=14	=14	=14	=14
2.BB;	2.d;	2.f#;	2.dd;
4C#	4e	4e	4anX
=15	=15	=15	=15
8DL	4A	8f#L	4a
8C#J	.	8eJ	.
8BBL	4B	4d	8gL
8AAJ	.	.	8f#J
4GG	4B	4d	8eL
.	.	.	16f#L
.	.	.	16gJJ
4AA	8AL	4c#	4e
.	8GJ	.	.
=16	=16	=16	=16
2.D;	2.F#;	2.A;	2.d;
==	==	==	==
*-	*-	*-	*-
!!!hum2abc: -Q ''
!!!title: @{PC#}. @{OTL@@DE}
!!!YOR1: 371 vierstimmige Choralges&auml;nge von Johann Sebastian Bach, 
!!!YOR2: 4th ed. by Alfred D&ouml;rffel (Leipzig: Breitkopf und H&auml;rtel, 
!!!YOR2: c.1875). 178 pp. Plate "V.A.10".  reprint: J.S. Bach, 371 Four-Part 
!!!YOR4: Chorales (New York: Associated Music Publishers, Inc., c.1940).
!!!SMS: B&H, 4th ed, Alfred D&ouml;rffel, c.1875, plate V.A.10
!!!EED:  Craig Stuart Sapp
!!!EEV:  2009/05/22
